src/basic/900/u2191-up.svg

<svg width="8" height="8" viewBox="0 0 8 8" fill="none" xmlns="http://www.w3.org/2000/svg">
<path fill-rule="evenodd" clip-rule="evenodd" d="M4.74623 0.646449L7.2462 3.14645L6.53909 3.85355L4.89265 2.20709L4.89265 8L3.89265 8L3.89265 2.20714L2.24623 3.85355L1.53912 3.14645L4.03912 0.646447L4.39268 0.292891L4.74623 0.646449Z" fill="black"/>
</svg>

<svg width="8" height="8" viewBox="0 0 8 8" fill="none" xmlns="http://www.w3.org/2000/svg">
<path fill-rule="evenodd" clip-rule="evenodd" d="M4.74623,0.64645l2.49997,2.5l-0.70711,0.7071l-1.64644,-1.64646v5.79291h-1v-5.79286l-1.64642,1.64641l-0.70711,-0.7071l2.5,-2.5l0.35356,-0.35356z" fill="black"/>
</svg>
